!!!!SEGMENT: pl-wtm--r-259-m--006_moniuszko-stanislaw--msza-sanctus.krn
!!!cenid: 18xx:2532
!!!COM: Moniuszko, Stanisław
!!!COM-rismid: pe30008351
!!!CDT: 1819/05/05-1872/06/04
!!!CNT: Polish
!!!OPR: Msza
!!!OTL: Sanctus
!!!OMV: 006
!!!PDT:
!!!AGN: Sacred; Mass
!!!SMS-siglum: PL-Wtm
!!!SMS-shelfmark: R 259/M
!!!SMS-shelfwork: 001-006 M
!!!SMS-variant:
!!!SMS-altvar:
!!!NIFC-rismid: 1001095367
!!!URL-scan: http://repozytorium.nifc.pl/skany/pl-wtm-nut--r259m
!!!ONB-nifc: UWAGA: części Mszy: 1. Kyrie, 2. Gloria, 3. Graduale, 4. Credo, 5. Offertorium, 6. Sanctus, 7. Benedictus, 8. Agnus
!!!key:
**kern	**dynam	**kern	**dynam	**kern	**dynam	**kern	**dynam	**kern	**dynam	**kern	**kern	**dynam
*part7	*part7	*part6	*part6	*part5	*part5	*part4	*part4	*part3	*part3	*part2	*part1	*part1
*staff7	*	*staff6	*	*staff5	*	*staff4	*	*staff3	*	*staff2	*staff1	*
*Ibass	*	*Icello	*	*Iviola	*	*Ivioln	*	*Ivioln	*	*Iorgan	*Iorgan	*
*I"CB.	*	*I"Vcli	*	*I"Vla.	*	*I"V 2	*	*I"v.1.	*	*I"Organo	*I"Organo	*
*clefF4	*	*clefF4	*	*clefC3	*	*clefG2	*	*clefG2	*	*clefF4	*clefG2	*
*Trd0c0	*	*	*	*	*	*	*	*	*	*	*	*
*k[]	*	*k[]	*	*k[]	*	*k[]	*	*k[]	*	*k[]	*k[]	*
*A-:	*	*A-:	*	*A-:	*	*A-:	*	*A-:	*	*A-:	*A-:	*
*M2/2	*	*M2/2	*	*M2/2	*	*M2/2	*	*M2/2	*	*M2/2	*M2/2	*
*met(c|)	*	*met(c|)	*	*met(c|)	*	*met(c|)	*	*met(c|)	*	*met(c|)	*met(c|)	*
=1	=1	=1	=1	=1	=1	=1	=1	=1	=1	=1	=1	=1
*all\right	*	*all\right	*	*all\right	*	*all\right	*	*all\right	*	*all\right	*all\right	*
*2\right	*	*2\right	*	*2\right	*	*	*	*	*	*2\right	*	*
!LO:TX:t=P:problem=w taktach 1-8 powtórka partii vlc, oktawę niżej	!LO:DY:rj	!	!LO:DY:rj	!	!LO:DY:rj	!	!LO:DY:rj	!LO:TX:a:i:t=Largo.	!LO:DY:rj	!	!	!LO:DY:rj
2G#X^\yy	fy	2G#X^\	f	2d#X^\	f	2B^/	f	2g#X^/	f	2B\ 2G#X\ 2D#X\ 2GG#X\	2g#X/ 2d/ 2B/	f
2F#X^\yy	.	2F#X^\	.	2f#X^\	.	2c#X^/	.	2a#X^/	.	2c#X\ 2A#X\ 2F#X\ 2FF#X\	2a#X/ 2f#X/ 2c#X/	.
=2	=2	=2	=2	=2	=2	=2	=2	=2	=2	=2	=2	=2
1BB/^>yy	.	1BB/^>	.	1f#X\^	.	1d#X/^	.	1b\^<	.	1B\ 1F#X\ 1BB\	1b/ 1f#X/ 1d#X/	.
=3	=3	=3	=3	=3	=3	=3	=3	=3	=3	=3	=3	=3
*	*	*	*	*	*	*	*	*	*	*^	*	*
2E^\yy	.	2E^\	.	2e^\	.	2B^/	.	2g#X^/	.	2B/ 2G#X/	2E\ 2EE\	2g#X/ 2e/	.
4.AA^/yy	.	4.AA^/	.	4.e^\	.	4.c#X^/	.	4.a^/	.	4.A/ 4.E/	4.AA\	4.a/ 4.e/ 4.c#X/	.
8D/yy	.	8D/	.	8d\	.	8A/	.	8f#X/	.	8A/ 8F#X/	8D\ 8DD\	8f#X/ 8d/	.
=4	=4	=4	=4	=4	=4	=4	=4	=4	=4	=4	=4	=4	=4
!	!	!	!	!	!	!	!	!	!	!	!LO:N:vis=2	!	!
2.D^<;\yy	.	2.D^<;\	.	2.d^<;\	.	2.A^;/	.	2.f#X^;/	.	2.A/ 2.F#X;/	2.D\ 2.DD\	2.f#X/ 2.d;/	.
4ryy	ppy	4r	pp	4r	pp	4r	pp	4r	pp	4r	4ryy	4r	.
*	*	*	*	*	*	*	*	*	*	*v	*v	*	*
=5	=5	=5	=5	=5	=5	=5	=5	=5	=5	=5	=5	=5
2D/yy	.	2D/	.	2d\	.	2A/	.	2f#X/	.	1r	1r	.
2C/yy	.	2C/	.	2e\	.	2B-X/	.	2g/	.	.	.	.
=6	=6	=6	=6	=6	=6	=6	=6	=6	=6	=6	=6	=6
1FFyy/	.	1FF/	.	1c\	.	1A/	.	2.a/ 2.f/	.	1r	1r	.
.	.	.	.	.	.	.	.	4f/	.	.	.	.
=7	=7	=7	=7	=7	=7	=7	=7	=7	=7	=7	=7	=7
2BB-X/yy	.	2BB-X/	.	2B-X/	.	2d/	.	2f/	.	1r	1r	.
4.E-X\yy	.	4.E-X\	.	4.B-/	.	4.e-X/	.	4.g/	.	.	.	.
8AA-X/yy	.	8AA-X/	.	8A-X/	.	8c/	.	8e-X/	.	.	.	.
=8	=8	=8	=8	=8	=8	=8	=8	=8	=8	=8	=8	=8
1AA-X/;yy	.	1AA-X/;	.	1A-X/;	.	1c/;	.	1e-X/;	.	1r;	1r;	.
!!LO:PB:g=original
=9||	=9||	=9||	=9||	=9||	=9||	=9||	=9||	=9||	=9||	=9||	=9||	=9||
*k[b-e-a-d-]	*	*k[b-e-a-d-]	*	*k[b-e-a-d-]	*	*k[b-e-a-d-]	*	*k[b-e-a-d-]	*	*k[b-e-a-d-]	*k[b-e-a-d-]	*
*	*	*	*	*	*	*	*	*	*	*^	*	*
!	!	!	!	!	!	!	!	!LO:TX:i:a:t=piu moſso	!	!	!	!LO:TX:i:a:t=piu moſso &colon;	!
1r	.	1r	.	1r	.	1r	.	1r	.	2A-/	1r	8r	.
.	.	.	.	.	.	.	.	.	.	.	.	(8c/L	.
.	.	.	.	.	.	.	.	.	.	.	.	8e-/)	.
.	.	.	.	.	.	.	.	.	.	.	.	8a-/J	.
.	.	.	.	.	.	.	.	.	.	2E-/	.	8r	.
.	.	.	.	.	.	.	.	.	.	.	.	(8B-/L	.
.	.	.	.	.	.	.	.	.	.	.	.	8e-/	.
.	.	.	.	.	.	.	.	.	.	.	.	8b-/J)	.
*	*	*	*	*	*	*	*	*	*	*v	*v	*	*
=10	=10	=10	=10	=10	=10	=10	=10	=10	=10	=10	=10	=10
1r	.	1r	.	1ryy	.	1ryy	.	1r	.	2AA-/	8r	.
.	.	.	.	.	.	.	.	.	.	.	(8c/L	.
.	.	.	.	.	.	.	.	.	.	.	8e-/	.
.	.	.	.	.	.	.	.	.	.	.	8a-/J	.
.	.	.	.	.	.	.	.	.	.	2C/	8cc/L	.
.	.	.	.	.	.	.	.	.	.	.	8a-/	.
!LO:TX:b:i:t=pizzi	!	!LO:TX:b:i:t=pizzi	!	!	!	!	!	!	!	!	!	!
.	.	.	.	.	.	.	.	.	.	.	8e-/	.
.	.	.	.	.	.	.	.	.	.	.	8c/J)	.
=11	=11	=11	=11	=11	=11	=11	=11	=11	=11	=11	=11	=11
!	!	!	!	!	!	!	!	!	!	!	!LO:TX:t=P:problem=t. Takty 11-15 skreślone - zapisane na dodatkowym systemie dla prawej ręki organów	!
4F\	.	4F\	.	1ryy	.	1ryy	.	1r	.	2F/	8r	.
.	.	.	.	.	.	.	.	.	.	.	(8c/L	.
4r	.	4r	.	.	.	.	.	.	.	.	8f/	.
.	.	.	.	.	.	.	.	.	.	.	8a-/J)	.
4E-\	.	4E-\	.	.	.	.	.	.	.	2E-/	8r	.
.	.	.	.	.	.	.	.	.	.	.	(8d-/L	.
4r	.	4r	.	.	.	.	.	.	.	.	8g/	.
.	.	.	.	.	.	.	.	.	.	.	8b-/J)	.
=12	=12	=12	=12	=12	=12	=12	=12	=12	=12	=12	=12	=12
*	*	*	*	*	*	*	*	*	*	*^	*^	*
4AA-/	.	4AA-/	.	1ryy	.	1ryy	.	1r	.	2.AA-/	2.ryy	8r	2ryy	.
.	.	.	.	.	.	.	.	.	.	.	.	(8c/L	.	.
4r	.	4r	.	.	.	.	.	.	.	.	.	8e-/	.	.
.	.	.	.	.	.	.	.	.	.	.	.	8a-/J)	.	.
2r	.	2r	.	.	.	.	.	.	.	.	.	8cc/L	4ryy	.
.	.	.	.	.	.	.	.	.	.	.	.	8a-/J	.	.
.	.	.	.	.	.	.	.	.	.	(4C/	4C\ 4CC\	8ee-/L	4e-\	.
.	.	.	.	.	.	.	.	.	.	.	.	8a-/J	.	.
*	*	*	*	*	*	*	*	*	*	*v	*v	*	*	*
=13	=13	=13	=13	=13	=13	=13	=13	=13	=13	=13	=13	=13	=13
1r	.	1r	.	1ryy	.	1ryy	.	1r	.	4D-/ 4DD-/	8ff/L	4f\	.
.	.	.	.	.	.	.	.	.	.	.	8a-/	.	.
.	.	.	.	.	.	.	.	.	.	4C/ 4CC/	8ee-/	4e-\	.
.	.	.	.	.	.	.	.	.	.	.	8a-/J	.	.
.	.	.	.	.	.	.	.	.	.	4E-/ 4EE-/	8cc/L	2ryy	.
.	.	.	.	.	.	.	.	.	.	.	8e-/	.	.
.	.	.	.	.	.	.	.	.	.	4A-/ 4AA-/)	8a-/	.	.
.	.	.	.	.	.	.	.	.	.	.	8e-/J	.	.
*	*	*	*	*	*	*	*	*	*	*	*v	*v	*
=14	=14	=14	=14	=14	=14	=14	=14	=14	=14	=14	=14	=14
4D-\	.	4D-\	.	1ryy	.	1ryy	.	1r	.	2D-/	8f/L 8d-/	.
.	.	.	.	.	.	.	.	.	.	.	8A-/	.
4r	.	4r	.	.	.	.	.	.	.	.	8d-/	.
.	.	.	.	.	.	.	.	.	.	.	8f/J	.
4E-\	.	4E-\	.	.	.	.	.	.	.	2E-/	8e-/L 8G/	.
.	.	.	.	.	.	.	.	.	.	.	8B-/	.
4r	.	4r	.	.	.	.	.	.	.	.	8e-/	.
.	.	.	.	.	.	.	.	.	.	.	8g/J	.
=15	=15	=15	=15	=15	=15	=15	=15	=15	=15	=15	=15	=15
4BB-/	.	4BB-/	.	1ryy	.	1ryy	.	1r	.	2F/ 2BB-/	8a-/L	.
.	.	.	.	.	.	.	.	.	.	.	8B-/	.
4r	.	4r	.	.	.	.	.	.	.	.	8dn/	.
.	.	.	.	.	.	.	.	.	.	.	8f/J	.
4E-\	.	4E-\	.	.	.	.	.	.	.	2G/ 2E-/	8b-/L	.
.	.	.	.	.	.	.	.	.	.	.	8d-X/	.
4r	.	4r	.	.	.	.	.	.	.	.	8e-/	.
.	.	.	.	.	.	.	.	.	.	.	8b-/J	.
=16	=16	=16	=16	=16	=16	=16	=16	=16	=16	=16	=16	=16
*	*	*	*	*	*	*	*	*	*	*^	*	*
4AA-/	.	4AA-/	.	2r	.	2r	.	2r	.	2A-/	2r	8cc/L	.
.	.	.	.	.	.	.	.	.	.	.	.	8c/	.
4r	.	4r	.	.	.	.	.	.	.	.	.	8e-/	.
.	.	.	.	.	.	.	.	.	.	.	.	8a-/J	.
4r	.	4r	.	4r	.	4r	.	4r	.	4rAA	4rA	4cc/	f
!LO:TX:b:i:t=arco	!LO:DY:rj	!LO:TX:b:i:t=arco	!LO:DY:rj	!	!LO:DY:rj	!	!LO:DY:rj	!	!LO:DY:rj	!	!	!	!
4C/	ff	4C/	ff	4c\	ff	4e-/	ff	4a-/	ff	4c/ 4A-/ 4E-/	4C\	4a-/ 4e-/	.
!	!	!	!	!	!	!	!	!	!	!	!	!LO:PB:g=original	!
!!LO:PB:g=original
=17	=17	=17	=17	=17	=17	=17	=17	=17	=17	=17	=17	=17	=17
*	*	*	*	*	*	*	*	*	*	*	*	*^	*
4D-^/	.	4D-^/	.	4d-^\	.	4f^/	.	4.a-^/	.	4d-/ 4A-/ 4F/	4D-\	2a-/	4f\	.
4C^/	.	4C^/	.	4c^\	.	4e-^/	.	.	.	4c/ 4A-/ 4E-/	4C\	.	4e-\	.
.	.	.	.	.	.	.	.	8a-/	.	.	.	.	.	.
4AA-^/	.	4AA-^/	.	4A-^/	.	4a-^/	.	4cc\ 4e-^\	.	4c/ 4A-/ 4E-/	4AA-\	4cc/ 4a-/ 4e-/	2ryy	.
4E-^\	.	4E-^\	.	4c^\	.	4a-^/	.	4ee-^\	.	4e-/ 4c/ 4A-/	4E-\	4ee-/ 4cc/ 4a-/	.	.
*	*	*	*	*	*	*	*	*	*	*	*	*v	*v	*
=18	=18	=18	=18	=18	=18	=18	=18	=18	=18	=18	=18	=18	=18
*	*	*	*	*	*	*	*	*2\right	*	*	*	*	*
4.C^\	.	4.C^\	.	2a-\ 2c^\	.	2cc/ 2e-^/	.	2aa-^\	.	2e-/ [2c/ [2A-/ [2E-/	4C\	(>2aa-/ 2ee-/ 2cc/ 2a-/	.
.	.	.	.	.	.	.	.	.	.	.	4r	.	.
8E-\	.	8E-\	.	.	.	.	.	.	.	.	.	.	.
4A-\	.	4A-\	.	4e-\	.	4a-/	.	4cc\	.	4c/] 4A-/] 4E-/]	4AA-\	4cc/ 4a-/)	.
4c\	.	4c\	.	4e-\	.	4a-/	.	4cc\	.	4e-/ 4c/ 4A-/	4C\	4cc/ 4a-/	.
=19	=19	=19	=19	=19	=19	=19	=19	=19	=19	=19	=19	=19	=19
*	*	*	*	*	*	*	*	*	*	*	*	*^	*
*	*	*	*	*	*	*	*	*	*	*	*	*	*2\right	*
1E-\^	.	1B-\^	.	1d-\^	.	2a-^/	.	1ee-\^	.	(1d-/ 1B-/ [<1E-/	1EE-\	(1ee-/	2a-\	.
.	.	.	.	.	.	2g/	.	.	.	.	.	.	2g\	.
=20	=20	=20	=20	=20	=20	=20	=20	=20	=20	=20	=20	=20	=20	=20
2A-\	.	2A-\	.	2c\	.	2a-/	.	2a-/	.	2c/ 2E-/])	2AA-\	2a-/)	2a-\	.
2r	.	2r	.	2r	.	2r	.	2r	.	4r	2rEE	2r	2ryy	.
!	!	!	!	!	!	!	!	!	!	!	!	!	!	!LO:DY:a=2:rj
.	.	.	.	.	.	.	.	.	.	(4E-/	.	.	.	p
*	*	*	*	*	*	*	*	*	*	*	*	*v	*v	*
=21	=21	=21	=21	=21	=21	=21	=21	=21	=21	=21	=21	=21	=21
1r	.	1r	.	1r	.	1r	.	1r	.	4F/	1rEE	1r	.
.	.	.	.	.	.	.	.	.	.	4E-/	.	.	.
.	.	.	.	.	.	.	.	.	.	4C/	.	.	.
.	.	.	.	.	.	.	.	.	.	4AA-/	.	.	.
*	*	*	*	*	*	*	*	*	*	*	*	*clefF4	*
=22	=22	=22	=22	=22	=22	=22	=22	=22	=22	=22	=22	=22	=22
*	*	*	*	*	*	*	*	*	*	*	*	*^	*
1r	.	1r	.	1r	.	1r	.	1r	.	2D-/	1rEE	2.A-/	(2F\	.
.	.	.	.	.	.	.	.	.	.	4C/)	.	.	4E-\)	.
.	.	.	.	.	.	.	.	.	.	(<4c/	.	4ryy	4r	.
*	*	*	*	*	*	*	*	*	*	*	*	*v	*v	*
=23	=23	=23	=23	=23	=23	=23	=23	=23	=23	=23	=23	=23	=23
1r	.	1r	.	1r	.	1r	.	1r	.	4d-/	1rEE	1r	.
.	.	.	.	.	.	.	.	.	.	4c/	.	.	.
.	.	.	.	.	.	.	.	.	.	4A-/	.	.	.
.	.	.	.	.	.	.	.	.	.	4E-/	.	.	.
*	*	*	*	*	*	*	*	*	*	*	*	*clefG2	*
=24	=24	=24	=24	=24	=24	=24	=24	=24	=24	=24	=24	=24	=24
1r	.	1r	.	1r	.	1r	.	1r	.	(<2B-/	1rEE	(2g/ [2e-/ (2d-/	.
.	.	.	.	.	.	.	.	.	.	4A-/))	.	4a-/ 4e-/] 4c/))	.
.	.	.	.	.	.	.	.	.	.	4r	.	(4a-/	.
*	*	*	*	*	*	*	*	*	*	*v	*v	*	*
=25	=25	=25	=25	=25	=25	=25	=25	=25	=25	=25	=25	=25
1r	.	1r	.	1r	.	1r	.	1r	.	1r	4b-/	.
.	.	.	.	.	.	.	.	.	.	.	4a-/	.
.	.	.	.	.	.	.	.	.	.	.	4f/	.
.	.	.	.	.	.	.	.	.	.	.	4d-/)	.
!!LO:PB:g=original
=26	=26	=26	=26	=26	=26	=26	=26	=26	=26	=26	=26	=26
*	*	*	*	*	*	*	*	*	*	*^	*^	*
1r	.	1r	.	1r	.	1r	.	1r	.	1B-/ 1E-/	1r	2f/	[1d-\	.
.	.	.	.	.	.	.	.	.	.	.	.	4b-/	.	.
.	.	.	.	.	.	.	.	.	.	.	.	4dd-/	.	.
=27	=27	=27	=27	=27	=27	=27	=27	=27	=27	=27	=27	=27	=27	=27
*	*	*	*	*	*	*	*	*	*	*	*^	*	*	*
1ryy	.	1ryy	.	1ryy	.	1ryy	.	1r	.	2A-/	1r	1E-/	2cc/	1d-\]	.
.	.	.	.	.	.	.	.	.	.	4G/	.	.	2b-/	.	.
.	.	.	.	.	.	.	.	.	.	4F/	.	.	.	.	.
*	*	*	*	*	*	*	*	*	*	*	*v	*v	*	*	*
*	*	*	*	*	*	*	*	*	*	*	*	*v	*v	*
=28	=28	=28	=28	=28	=28	=28	=28	=28	=28	=28	=28	=28	=28
1ryy	.	1ryy	.	1ryy	.	1ryy	.	1r	.	2G/	1r	2e-/ 2B-/	.
.	.	.	.	.	.	.	.	.	.	2r	.	4r	.
.	.	.	.	.	.	.	.	.	.	.	.	4ee-\	.
=29	=29	=29	=29	=29	=29	=29	=29	=29	=29	=29	=29	=29	=29
1ryy	.	1ryy	.	1ryy	.	1ryy	.	1r	.	1r	1r	4.gg\	.
.	.	.	.	.	.	.	.	.	.	.	.	8ff\	.
.	.	.	.	.	.	.	.	.	.	.	.	4dd-\	.
.	.	.	.	.	.	.	.	.	.	.	.	4b-\	.
=30	=30	=30	=30	=30	=30	=30	=30	=30	=30	=30	=30	=30	=30
1ryy	.	1ryy	.	1ryy	.	1ryy	.	1r	.	1r	1r	2g/	.
.	.	.	.	.	.	.	.	.	.	.	.	2e-/	.
=31	=31	=31	=31	=31	=31	=31	=31	=31	=31	=31	=31	=31	=31
*	*	*	*	*	*	*	*	*	*	*	*	*^	*
1ryy	.	1ryy	.	1ryy	.	1ryy	.	1r	.	2F/ 2BB-/	1r	2a-/	2dn\	.
.	.	.	.	.	.	.	.	.	.	2G/ 2E-/	.	2b-/	2d-X\	.
=32	=32	=32	=32	=32	=32	=32	=32	=32	=32	=32	=32	=32	=32	=32
*	*	*	*	*	*	*	*	*	*	*	*^	*	*	*
2r	.	2r	.	2r	.	2r	.	2r	.	2A-/ 2AA-/	1r	2ryy	2cc/	2c\	.
4r	ff	4r	ff	4r	ff	4r	ff	4r	ff	4r	.	4ryy	4r	2ryy	.
!	!	!	!	!	!	!	!	!	!	!	!	!	!	!	!LO:DY:rj
4C^/	.	4C^/	.	4c^\	.	4e-^/	.	4a-^/	.	4c/ 4A-/ 4E-/	.	4C\	4a-/ 4e-/	.	f
*	*	*	*	*	*	*	*	*	*	*	*v	*v	*	*	*
=33	=33	=33	=33	=33	=33	=33	=33	=33	=33	=33	=33	=33	=33	=33
!LO:TX:a:t=col vlc	!	!	!	!	!	!	!	!	!	!	!	!	!	!
!LO:TX:t=P:problem=takty 33-34 powtórka partii vc	!	!	!	!	!	!	!	!	!	!	!	!	!	!
4D-^/yy	.	4D-^/	.	4d-^\	.	4f^/	.	4.a-^/	.	[4d-/	[4A-\ 4F\ 4D-\	2a-/	(>4f\	.
4C^/yy	.	4C^/	.	4c^\	.	4e-^/	.	.	.	4d-/] 4A-/]	4E-\ 4C\	.	4e-\)	.
.	.	.	.	.	.	.	.	8a-/	.	.	.	.	.	.
4AA-^/yy	.	4AA-^/	.	4A-^\	.	4a-^/	.	4cc/ 4e-^/	.	4c/ 4A-/ 4E-/	4AA-\	4cc/	4a-\ 4e-\	.
4E-^<\yy	.	4E-^<\	.	4c^\	.	4a-^/	.	4ee-^\	.	4e-/ 4c/ 4A-/ 4E-/	4C\	4ee-/	4cc\ 4a-\	.
*	*	*	*	*	*	*	*	*	*	*	*	*v	*v	*
=34	=34	=34	=34	=34	=34	=34	=34	=34	=34	=34	=34	=34	=34
4.C^\yy	.	4.C^\	.	2a-\ 2c^\	.	2cc/ 2e-^/	.	2aa-\ 2cc^\	.	2e-/ [2c/ [2A-/ [2E-/	4C\	2aa-/ 2cc/ 2a-/	.
.	.	.	.	.	.	.	.	.	.	.	4r	.	.
8E-\yy	.	8E-\	.	.	.	.	.	.	.	.	.	.	.
4A-\yy	.	4A-\	.	4e-\	.	4a-/	.	4cc\	.	4c/] 4A-/] 4E-/]	4AA-\	4ee-/ 4cc/ 4a-/	.
4c\yy	.	4c\	.	4e-\	.	4a-/	.	4cc\	.	4c/ 4A-/	4C\	4cc/ 4a-/ 4e-/	.
*	*	*	*	*	*	*	*	*	*	*v	*v	*	*
!!LO:PB:g=original
=35	=35	=35	=35	=35	=35	=35	=35	=35	=35	=35	=35	=35
*	*	*	*	*	*	*	*	*	*	*	*^	*
1E-\	.	1c\^	.	1e-\^	.	[1a-/^	.	2ee-\	.	1c\ 1A-\ [1E-\	(2ee-/	1a-\	.
.	.	.	.	.	.	.	.	[2ff^\	.	.	[2ff/	.	.
*	*	*	*	*	*	*	*	*	*	*	*v	*v	*
=36	=36	=36	=36	=36	=36	=36	=36	=36	=36	=36	=36	=36
1E-\^	.	1B-\	.	1d-\	.	2a-/]	.	2ff\]	.	1d-\ 1B-\ 1E-\] 1EE-\	2ff/] 2a-/	.
.	.	.	.	.	.	2g/	.	2ee-\	.	.	2ee-/ 2g/	.
=37	=37	=37	=37	=37	=37	=37	=37	=37	=37	=37	=37	=37
*	*	*	*	*	*	*	*	*	*	*^	*	*
4A-\	.	4A-\	.	4c\	.	4a-/	.	4a-/	.	4c/ 4A-/	4AA-\	4a-/)	.
8.r	ff	8.r	ff	8.r	ff	8.r	ff	8.r	ff	8.r	8.ryy	8.r	.
16AA-/	.	16AA-/	.	16e-\ 16d-\	.	16e-/ 16c/	.	16a-/	.	16A-/ 16E-/	16AA-\	16a-/ 16e-/ 16c/	.
8AA-/	.	8AA-/	.	8e-\ 8c\	.	8e-/ 8c/	.	8a-/	.	4A-/ 4E-/	4AA-\	4a-/ 4e-/ 4c/	.
8r	.	8r	.	8r	.	8r	.	8r	.	.	.	.	.
!	!LO:DY:rj	!	!LO:DY:rj	!	!LO:DY:rj	!LO:TX:t=P:problem=stąd do końca taktu 40 powtórka partii vl 1	!LO:DY:rj	!	!LO:DY:rj	!	!	!	!
!	!	!	!	!	!	!LO:TX:a:t=Col 1mo	!	!	!	!	!	!	!
4C'/	f	4C'/	f	4C'/	f	4c'/yy	f	4c'/	f	4C/	4CC\	4r	.
=38	=38	=38	=38	=38	=38	=38	=38	=38	=38	=38	=38	=38	=38
!LO:TX:t=P:problem=takty 38-44 powtórka partii vlc, oktawę niżej	!	!	!	!	!	!	!	!	!	!	!	!	!
!LO:TX:a:t=marcato	!	!LO:TX:a:t=marcato	!	!	!	!LO:TX:a:t=marcato	!	!LO:TX:a:t=marcato	!	!	!	!	!
4.D-^\yy	.	4.D-^\	.	4.D-^/	.	4.d-^/yy	.	4.d-^/	.	4.D-/	4.DD-\	1r	.
8C\yy	.	8C\	.	8C/	.	8c/yy	.	8c/	.	8C/	8CC\	.	.
4D-^\yy	.	4D-^\	.	4D-^>/	.	4d-^/yy	.	4d-^/	.	4D-/	4DD-\	.	.
4Dn^\yy	.	4Dn^\	.	4Dn^>/	.	4dn^/yy	.	4dn^/	.	4Dn/	4DDn\	.	.
=39	=39	=39	=39	=39	=39	=39	=39	=39	=39	=39	=39	=39	=39
4.E-^\yy	.	4.E-^\	.	4.E-^/	.	4.e-^/yy	.	4.e-^/	.	4.E-/	4.EE-\	1r	.
8Dn\yy	.	8Dn\	.	8Dn/	.	8dn/yy	.	8dn/	.	8D-/	8DD-\	.	.
4E-^\yy	.	4E-^\	.	4E-^/	.	4e-^/yy	.	4e-^/	.	4E-/	4EE-\	.	.
4En^\yy	.	4En^\	.	4En^/	.	4en^/yy	.	4en^/	.	4En/	4EEn\	.	.
=40	=40	=40	=40	=40	=40	=40	=40	=40	=40	=40	=40	=40	=40
4.F^\yy	.	4.F^\	.	4.F^/	.	4.f^/yy	.	4.f^/	.	4.F/	4.FF\	1r	.
8En\yy	.	8En\	.	8En/	.	8en/yy	.	8en/	.	8En/	8EEn\	.	.
4F^\yy	.	4F^\	.	4F^/	.	4f^/yy	.	4f^/	.	4F/	4FF\	.	.
4G^\yy	.	4G^\	.	4G^/	.	4g^/yy	.	4g^/	.	4G/	4GG\	.	.
*	*	*	*	*	*	*	*	*	*	*v	*v	*	*
=41	=41	=41	=41	=41	=41	=41	=41	=41	=41	=41	=41	=41
!	!	!	!	!LO:TX:a:t=Viola (x)	!	!LO:TX:a:t=V.2do (xx)	!	!LO:TX:t=P:problem=t. 41 w calym kwintecie wykreślony i zapisany ponizej/powyżej	!	!LO:TX:t=P:problem=poprawiana wersja, u góry	!	!
4.G#X^\yy	.	4.G#X^\	.	4.G#X^/	.	4.g#X^/	.	4.g#X^/	.	4.G#X/ 4.GG#X/	2r	.
8F##X\yy	.	8F##X\	.	8F##X/	.	8f##X/	.	8f##X/	.	8F##X/ 8FF##X/	.	.
4G#^\yy	.	4G#^\	.	4G#^/	.	4g#^/	.	4g#^/	.	4G#/ 4GG#/	4r	.
4A#X^\yy	.	4A#X^\	.	4en\ 4c#X^\	.	4f#X/ 4c#X^/	.	4f#X/ 4c#X^/	.	4A#X/ 4AA#X/	4f#X/ 4en/ 4c#X/	.
=42||	=42||	=42||	=42||	=42||	=42||	=42||	=42||	=42||	=42||	=42||	=42||	=42||
*	*	*	*	*	*	*	*	*	*	*^	*	*
*	*	*	*	*	*	*2\right	*	*	*	*	*	*	*
!	!LO:DY:rj	!	!LO:DY:rj	!	!LO:DY:rj	!	!LO:DY:rj	!LO:TX:a:i:t=tempo 1mo	!	!	!	!LO:TX:a:i:t=tempo 1mo	!
2Bn^\yy	ffy	2Bn^\	ff	2dn\	ff	2bn\ 2f#X^\	ff	2bn/ 2dn^/	.	2Bn/ 2F#X/ 2D-/	2BBn\	2bn/ 2f#X/ 2dn/	.
2An^\yy	.	2An^\	.	2an\	.	2an^\	.	2cc#X/ 2en^/	.	2c#X/ 2An/ 2En/	2AAn\	2cc#X/ 2an/ 2en/	.
*	*	*	*	*	*	*	*	*	*	*v	*v	*	*
=43	=43	=43	=43	=43	=43	=43	=43	=43	=43	=43	=43	=43
1Dn\^yy	.	1Dn\^	.	1a-\ 1f#X\^	.	1an/ 1f#X/^>	.	1ddn/ 1dn/^	.	1d-/ 1An/ 1F#X/ 1D-/ 1DD-/	1dd-/ 1an/ 1f#X/	.
=44	=44	=44	=44	=44	=44	=44	=44	=44	=44	=44	=44	=44
*	*	*	*	*	*	*	*	*	*	*^	*	*
2G\yy	.	2G\	.	2g\ 2G^\	.	2g/ 2G^/	.	2bn/ 2dn^/	.	2d-/ 2Bn/ 2G/	2GG\	2bn/ 2g/	.
4.C/yy	.	4.C/	.	4.g\ 4.F^\	.	4.g/ 4.G^/	.	4.cc/ 4.en^/	.	4.c/ 4.G/ 4.C/	4.CC\	4.cc/ 4.g/ 4.en/	.
8F\yy	.	8F\	.	8f\ 8c\	.	8f/ 8c/	.	8an/ 8f/	.	8c/ 8An/ 8F/	8FF\	8an/ 8f/	.
*	*	*	*	*	*	*	*	*	*	*v	*v	*	*
=45	=45	=45	=45	=45	=45	=45	=45	=45	=45	=45	=45	=45
2.F;\	.	2.F;\	.	2.f\ 2.c;\	.	2f/ 2c;/	.	2.an/ 2.f;/	.	1c\ 1An\ 1F\ 1FF\;	1an/ 1f/;	.
.	.	.	.	.	.	2r	.	.	.	.	.	.
4r	.	4r	.	4r	.	.	.	4r	.	.	.	.
!!LO:PB:g=original
=46	=46	=46	=46	=46	=46	=46	=46	=46	=46	=46	=46	=46
*	*	*	*	*	*	*	*	*	*	*^	*^	*
!	!	!	!	!	!	!	!	!	!	!	!	!	!	!LO:DY:rj
1r	.	1r	.	1r	.	1r	.	1r	.	2c/ 2F/	1r	2an/	2f\	p
.	.	.	.	.	.	.	.	.	.	2d-X/ 2E-X/	.	4.b-X/	2g\	.
.	.	.	.	.	.	.	.	.	.	.	.	8bn/	.	.
=47	=47	=47	=47	=47	=47	=47	=47	=47	=47	=47	=47	=47	=47	=47
1ryy	.	1ryy	.	1ryy	.	1ryy	.	1ryy	.	1c/ 1A-/	1r	2cc/	2a-\	.
.	.	.	.	.	.	.	.	.	.	.	.	2a-/	2a-\	.
*	*	*	*	*	*	*	*	*	*	*	*	*v	*v	*
=48||	=48||	=48||	=48||	=48||	=48||	=48||	=48||	=48||	=48||	=48||	=48||	=48||	=48||
!	!	!	!	!	!	!	!	!LO:TX:a:i:t=piu moſso.	!	!	!	!LO:TX:a:i:t=piu moſso.	!
1r	.	1r	.	1r	.	1r	.	1r	.	1B-/ 1D-/	1r	1ff\ 1a-\	.
=49	=49	=49	=49	=49	=49	=49	=49	=49	=49	=49	=49	=49	=49
2r	.	2r	.	2r	.	2r	.	2r	.	4B-/ 4E-/	2r	4ee-\ 4g\	.
.	.	.	.	.	.	.	.	.	.	4r	.	4r	ff
!	!LO:DY:rj	!	!LO:DY:rj	!	!LO:DY:rj	!	!LO:DY:rj	!	!LO:DY:rj	!	!	!	!
4E-\	ff	4E-\	ff	4e-\	ff	4ee-\	ff	4ee-\	ff	2e-/ 2E-/	2E-\	2ee-/	.
4r	.	4r	.	4r	.	4r	.	4r	.	.	.	.	.
*	*	*	*	*	*	*	*	*	*	*v	*v	*	*
=50	=50	=50	=50	=50	=50	=50	=50	=50	=50	=50	=50	=50
*	*	*	*	*	*	*	*	*	*	*^	*	*
*	*	*	*	*tremolo	*	*tremolo	*	*tremolo	*	*	*	*	*
!	!	!	!	!	!	!	!	!	!	!	!	!LO:S:s=2:note:problem=note-level slur	!
1AA-/^	.	1AA-/^	.	32cc\LLL 32e-\	.	32ee-\LLL	.	32aa-\LLL 32cc\	.	[<1AA-/	[>1e-\ [>1c\ [>1A-\ [>1E-\	1aa-\ (1ee-\ 1cc\ 1a-\	.
.	.	.	.	32cc\ 32e-\	.	32ee-\	.	32aa-\ 32cc\	.	.	.	.	.
.	.	.	.	32cc\ 32e-\	.	32ee-\	.	32aa-\ 32cc\	.	.	.	.	.
.	.	.	.	32cc\ 32e-\	.	32ee-\	.	32aa-\ 32cc\	.	.	.	.	.
.	.	.	.	32cc\ 32e-\	.	32ee-\	.	32aa-\ 32cc\	.	.	.	.	.
.	.	.	.	32cc\ 32e-\	.	32ee-\	.	32aa-\ 32cc\	.	.	.	.	.
.	.	.	.	32cc\ 32e-\	.	32ee-\	.	32aa-\ 32cc\	.	.	.	.	.
.	.	.	.	32cc\ 32e-\	.	32ee-\	.	32aa-\ 32cc\	.	.	.	.	.
.	.	.	.	32cc\ 32e-\	.	32ee-\	.	32aa-\ 32cc\	.	.	.	.	.
.	.	.	.	32cc\ 32e-\	.	32ee-\	.	32aa-\ 32cc\	.	.	.	.	.
.	.	.	.	32cc\ 32e-\	.	32ee-\	.	32aa-\ 32cc\	.	.	.	.	.
.	.	.	.	32cc\ 32e-\	.	32ee-\	.	32aa-\ 32cc\	.	.	.	.	.
.	.	.	.	32cc\ 32e-\	.	32ee-\	.	32aa-\ 32cc\	.	.	.	.	.
.	.	.	.	32cc\ 32e-\	.	32ee-\	.	32aa-\ 32cc\	.	.	.	.	.
.	.	.	.	32cc\ 32e-\	.	32ee-\	.	32aa-\ 32cc\	.	.	.	.	.
.	.	.	.	32cc\ 32e-\	.	32ee-\	.	32aa-\ 32cc\	.	.	.	.	.
.	.	.	.	32cc\ 32e-\	.	32ee-\	.	32aa-\ 32cc\	.	.	.	.	.
.	.	.	.	32cc\ 32e-\	.	32ee-\	.	32aa-\ 32cc\	.	.	.	.	.
.	.	.	.	32cc\ 32e-\	.	32ee-\	.	32aa-\ 32cc\	.	.	.	.	.
.	.	.	.	32cc\ 32e-\	.	32ee-\	.	32aa-\ 32cc\	.	.	.	.	.
.	.	.	.	32cc\ 32e-\	.	32ee-\	.	32aa-\ 32cc\	.	.	.	.	.
.	.	.	.	32cc\ 32e-\	.	32ee-\	.	32aa-\ 32cc\	.	.	.	.	.
.	.	.	.	32cc\ 32e-\	.	32ee-\	.	32aa-\ 32cc\	.	.	.	.	.
.	.	.	.	32cc\ 32e-\	.	32ee-\	.	32aa-\ 32cc\	.	.	.	.	.
.	.	.	.	32cc\ 32e-\	.	32ee-\	.	32aa-\ 32cc\	.	.	.	.	.
.	.	.	.	32cc\ 32e-\	.	32ee-\	.	32aa-\ 32cc\	.	.	.	.	.
.	.	.	.	32cc\ 32e-\	.	32ee-\	.	32aa-\ 32cc\	.	.	.	.	.
.	.	.	.	32cc\ 32e-\	.	32ee-\	.	32aa-\ 32cc\	.	.	.	.	.
.	.	.	.	32cc\ 32e-\	.	32ee-\	.	32aa-\ 32cc\	.	.	.	.	.
.	.	.	.	32cc\ 32e-\	.	32ee-\	.	32aa-\ 32cc\	.	.	.	.	.
.	.	.	.	32cc\ 32e-\	.	32ee-\	.	32aa-\ 32cc\	.	.	.	.	.
.	.	.	.	32cc\JJJ 32e-\	.	32ee-\JJJ	.	32aa-\JJJ 32cc\	.	.	.	.	.
=51	=51	=51	=51	=51	=51	=51	=51	=51	=51	=51	=51	=51	=51
*	*	*	*	*	*	*	*	*	*	*	*	*^	*
*	*	*	*	*	*	*	*	*	*	*	*rep	*	*	*
2AA-^/	.	2AA-^/	.	32a-\LLL	.	32cc\LLL	.	32ee-\LLL	.	1AA-/]	1e-\] 1c\] 1A-\] 1E-\]	2ee-/ 2cc/)	2a-\	.
.	.	.	.	32a-\	.	32cc\	.	32ee-\	.	.	.	.	.	.
.	.	.	.	32a-\	.	32cc\	.	32ee-\	.	.	.	.	.	.
.	.	.	.	32a-\	.	32cc\	.	32ee-\	.	.	.	.	.	.
.	.	.	.	32a-\	.	32cc\	.	32ee-\	.	.	.	.	.	.
.	.	.	.	32a-\	.	32cc\	.	32ee-\	.	.	.	.	.	.
.	.	.	.	32a-\	.	32cc\	.	32ee-\	.	.	.	.	.	.
.	.	.	.	32a-\	.	32cc\	.	32ee-\	.	.	.	.	.	.
.	.	.	.	32a-\	.	32cc\	.	32ee-\	.	.	.	.	.	.
.	.	.	.	32a-\	.	32cc\	.	32ee-\	.	.	.	.	.	.
.	.	.	.	32a-\	.	32cc\	.	32ee-\	.	.	.	.	.	.
.	.	.	.	32a-\	.	32cc\	.	32ee-\	.	.	.	.	.	.
.	.	.	.	32a-\	.	32cc\	.	32ee-\	.	.	.	.	.	.
.	.	.	.	32a-\	.	32cc\	.	32ee-\	.	.	.	.	.	.
.	.	.	.	32a-\	.	32cc\	.	32ee-\	.	.	.	.	.	.
.	.	.	.	32a-\JJJ	.	32cc\JJJ	.	32ee-\JJJ	.	.	.	.	.	.
2AA-^/	.	2AA-^/	.	32e-\LLL	.	32a-/LLL	.	32cc\LLL	.	.	.	2cc/	2a-\	.
.	.	.	.	32e-\	.	32a-/	.	32cc\	.	.	.	.	.	.
.	.	.	.	32e-\	.	32a-/	.	32cc\	.	.	.	.	.	.
.	.	.	.	32e-\	.	32a-/	.	32cc\	.	.	.	.	.	.
.	.	.	.	32e-\	.	32a-/	.	32cc\	.	.	.	.	.	.
.	.	.	.	32e-\	.	32a-/	.	32cc\	.	.	.	.	.	.
.	.	.	.	32e-\	.	32a-/	.	32cc\	.	.	.	.	.	.
.	.	.	.	32e-\	.	32a-/	.	32cc\	.	.	.	.	.	.
.	.	.	.	32e-\	.	32a-/	.	32cc\	.	.	.	.	.	.
.	.	.	.	32e-\	.	32a-/	.	32cc\	.	.	.	.	.	.
.	.	.	.	32e-\	.	32a-/	.	32cc\	.	.	.	.	.	.
.	.	.	.	32e-\	.	32a-/	.	32cc\	.	.	.	.	.	.
.	.	.	.	32e-\	.	32a-/	.	32cc\	.	.	.	.	.	.
.	.	.	.	32e-\	.	32a-/	.	32cc\	.	.	.	.	.	.
.	.	.	.	32e-\	.	32a-/	.	32cc\	.	.	.	.	.	.
.	.	.	.	32e-\JJJ	.	32a-/JJJ	.	32cc\JJJ	.	.	.	.	.	.
*	*	*	*	*Xtremolo	*	*Xtremolo	*	*Xtremolo	*	*	*Xrep	*	*	*
*	*	*	*	*	*	*	*	*	*	*v	*v	*	*	*
*	*	*	*	*	*	*	*	*	*	*	*v	*v	*
=52	=52	=52	=52	=52	=52	=52	=52	=52	=52	=52	=52	=52
1AA-/^	.	1AA-/^	.	2c/	.	2e-/	.	2a-/	.	[1A-\ [1E-\ 1AA-\	[1a-/ [>1e-/ [>1c/	.
.	.	.	.	4A-/	.	4c/	.	4e-/	.	.	.	.
.	.	.	.	4E-/	.	4A-/	.	4c/	.	.	.	.
=53	=53	=53	=53	=53	=53	=53	=53	=53	=53	=53	=53	=53
2AA-^/	.	2AA-^/	.	2E-/	.	2A-/	.	2A-/	.	(1A-\_ 1E-\_ [>1AA-\	2a-/] 2e-/] 2c/]	.
2AA-^/	.	2AA-^/	.	2A-/ 2E-^/	.	2e-/ 2c^/	.	2e-/ 2c^/	.	.	2e-/ 2c/	.
=54	=54	=54	=54	=54	=54	=54	=54	=54	=54	=54	=54	=54
!	!	!	!	!	!	!	!	!	!	!	!	!LO:DY:rj:t=pian
1AA-/^;	.	1AA-/^;	.	1E-/^;	.	1A-/^;	.	1c/^;	.	2.A-\] 2.E-\] 2.C\ 2.AA-\])	1cc/ 1a-/ 1e-/ 1c/;	p
.	.	.	.	.	.	.	.	.	.	4r;	.	.
==	==	==	==	==	==	==	==	==	==	==	==	==
*-	*-	*-	*-	*-	*-	*-	*-	*-	*-	*-	*-	*-
!!!system-decoration: ([s1,s2],[s3,s4,s5,s6,s7])
!!!RDF**kern: > = above
!!!RDF**kern: < = below
!!!EED: Andrzej Borzym
!!!EST: 2021-07-12
!!!AIN: 1 bass 1 cello 2 organ 1 viola 2 violn
!!!ENC: Andrzej Gręziak
!!!END: 2021-07-09
